X:17
T: Down the Brae
M:4/4
L:1/8
%Q:200
C:Traditional
S:From J.R. Rhodebeck
R:Reel
F:http://www.blackflute.com/music/tunes/reels/downbrae.abc	 2005-01-28 19:
F::22 UT
K:Em
B,2 \
| "Em"E3D E2F2 | G3F G2A2 | B4 e4 | "(G)"d2 B4A2
| G3F G2B2 | "D"A2F2 D2E2 | "Bm"F4 E4 |1 "Bm"D2 B,4 :|2 "Em"E4 e2d2 ||
|| "Em"B4 e4 | e4 d2e2 | "D"f4 e4 | d2 B4 B2 | "D"A3G A2B2 | d3B d2e2 | "D"d2B2 A2B2 | d4 B2A2 |
| "Em"B4 e4 | e4d2 e2 | "D"f4 e4 | d2 B4 A2 | "Em"G3F G2B2 | "D"A2F2 D2E2 | "(Bm)"F4 E4 | "Em"E4 z2 |]
